src/assets/outline/MessageAdd1.svg

<?xml version="1.0" encoding="UTF-8"?>
<svg width="24" height="24" viewBox="0 0 24 24" xmlns="http://www.w3.org/2000/svg">
 <path d="m16 22.75h-13c-0.96 0-1.75-0.79-1.75-1.75v-13c0-4.42 2.33-6.75 6.75-6.75h8c4.42 0 6.75 2.33 6.75 6.75v8c0 4.42-2.33 6.75-6.75 6.75zm-8-20c-3.58 0-5.25 1.67-5.25 5.25v13c0 0.14 0.11 0.25 0.25 0.25h13c3.58 0 5.25-1.67 5.25-5.25v-8c0-3.58-1.67-5.25-5.25-5.25h-8z"/>
 <path d="m15.5 12.75h-7c-0.41 0-0.75-0.34-0.75-0.75s0.34-0.75 0.75-0.75h7c0.41 0 0.75 0.34 0.75 0.75s-0.34 0.75-0.75 0.75z"/>
 <path d="m12 16.25c-0.41 0-0.75-0.34-0.75-0.75v-7c0-0.41 0.34-0.75 0.75-0.75s0.75 0.34 0.75 0.75v7c0 0.41-0.34 0.75-0.75 0.75z"/>
</svg>

<svg width="24" height="24" viewBox="0 0 24 24"  xmlns="http://www.w3.org/2000/svg">
<path d="M16 22.75H3C2.04 22.75 1.25 21.96 1.25 21V8C1.25 3.58 3.58 1.25 8 1.25H16C20.42 1.25 22.75 3.58 22.75 8V16C22.75 20.42 20.42 22.75 16 22.75ZM8 2.75C4.42 2.75 2.75 4.42 2.75 8V21C2.75 21.14 2.86 21.25 3 21.25H16C19.58 21.25 21.25 19.58 21.25 16V8C21.25 4.42 19.58 2.75 16 2.75H8Z" />
<path d="M15.5 12.75H8.5C8.09 12.75 7.75 12.41 7.75 12C7.75 11.59 8.09 11.25 8.5 11.25H15.5C15.91 11.25 16.25 11.59 16.25 12C16.25 12.41 15.91 12.75 15.5 12.75Z" />
<path d="M12 16.25C11.59 16.25 11.25 15.91 11.25 15.5V8.5C11.25 8.09 11.59 7.75 12 7.75C12.41 7.75 12.75 8.09 12.75 8.5V15.5C12.75 15.91 12.41 16.25 12 16.25Z" />
</svg>
